assets/icons/star.svg

<svg xmlns="http://www.w3.org/2000/svg" viewBox="0 0 24 24" fill="none" class="text-emerald-300 w-28 h-28">
  <path fill="currentColor" d="M12 1s0 7-2 9-9 2-9 2 7 0 9 2 2 9 2 9 0-7 2-9 9-2 9-2-7 0-9-2-2-9-2-9"></path>
</svg>

<svg width="24" height="24" viewBox="0 0 24 24" fill="none" xmlns="http://www.w3.org/2000/svg">
<path d="M12 1C12 1 12 8 10 10C8 12 1 12 1 12C1 12 8 12 10 14C12 16 12 23 12 23C12 23 12 16 14 14C16 12 23 12 23 12C23 12 16 12 14 10C12 8 12 1 12 1Z" fill="currentColor"/>
</svg>
